X: 1
T: The Deacon of the Weavers
T: 8x32S 3C (RSCDS Bk 25)
P: Master Reginald MacDonald
R: Strathspey
C: K.N. Macdonald
C: arr. T. Traub 6-Aug-2012
S: MacDonald - Skye Collection
M: C
L: 1/8
K: A
|: e|"A"A<Ae>A a>f!beambr1!e<e|"D"f>e"A"a>e "E"f<B B2|"A"A<Ae<A "D"a>f"A"e<e|"D"f>e"A"a>c "E"B2 "A"A:|
e|"A"A<Ac>A e>Ac>A|"E"E<EG>E B>E!beambr1!G<B|"A"A<Ac>A e>Ac>A|"E"E<EG>B "A"A2 A2|
"A"A<Ac>A a>ec>A|"E"E<EG>E B>E!beambr1!G<B|"A"(3ABc "E"(3Bcd "A"(3cde "D"(3def|"E"(3agf (3efg "A"a2 a|]

